tools/download-figma-icons/icons/outlined-medium/shovel.svg

<svg width="24" height="25" viewBox="0 0 24 25" fill="none" xmlns="http://www.w3.org/2000/svg">
<path d="M23.7824 4.88476L19.5359 0.604405C19.4659 0.531854 19.382 0.474147 19.2892 0.434731C19.1964 0.395315 19.0965 0.375 18.9957 0.375C18.8948 0.375 18.795 0.395315 18.7022 0.434731C18.6094 0.474147 18.5255 0.531854 18.4555 0.604405L16.6999 2.47847C16.6086 2.57772 16.5458 2.69973 16.518 2.83165C16.4903 2.96358 16.4987 3.10053 16.5423 3.22809L17.4952 5.77681L8.24432 15.0722L5.76843 12.5984C5.62786 12.4588 5.4377 12.3804 5.23949 12.3804C5.04128 12.3804 4.85112 12.4588 4.71055 12.5984L2.08461 15.2221C0.0363681 17.2311 -1.04402 20.4695 1.42437 22.9432C1.8417 23.3858 2.34347 23.7405 2.90011 23.9864C3.45675 24.2323 4.05701 24.3644 4.66554 24.375C6.37971 24.2833 7.99232 23.5341 9.16716 22.2835L11.7931 19.6599C11.8634 19.5902 11.9192 19.5073 11.9573 19.4159C11.9954 19.3246 12.015 19.2266 12.015 19.1276C12.015 19.0287 11.9954 18.9307 11.9573 18.8393C11.9192 18.748 11.8634 18.6651 11.7931 18.5954L9.2947 16.1291L18.5605 6.87876L21.1115 7.83828C21.1956 7.86881 21.2845 7.88404 21.3741 7.88326C21.5636 7.88261 21.7459 7.81029 21.8842 7.68086L23.7599 5.92674C23.8344 5.85771 23.8941 5.77427 23.9354 5.6815C23.9767 5.58872 23.9986 5.48853 24 5.38701C23.9934 5.19818 23.9157 5.0188 23.7824 4.88476ZM8.07926 21.2191C6.5187 22.7783 4.18536 23.6254 2.47475 21.8787C0.76413 20.1321 1.57442 17.8383 3.13498 16.2866L5.24324 14.1876L7.17144 16.1291L4.70305 18.5954C4.56177 18.7356 4.48201 18.9261 4.4813 19.125C4.48095 19.2235 4.50003 19.3211 4.53743 19.4122C4.57483 19.5033 4.62984 19.5862 4.6993 19.6561C4.76876 19.726 4.85132 19.7815 4.94226 19.8196C5.03321 19.8576 5.13076 19.8773 5.22934 19.8777C5.42843 19.8784 5.61965 19.8 5.76093 19.6599L8.23682 17.1861L10.18 19.1276L8.07926 21.2191ZM21.2015 6.27157L18.9507 5.42449L18.1104 3.17562L19.0182 2.2086L22.1693 5.34953L21.2015 6.27157Z" fill="black"/>
</svg>

<svg width="24" height="25" viewBox="0 0 24 25" fill="none" xmlns="http://www.w3.org/2000/svg"><path d="M23.782 4.885 19.536.605a.75.75 0 0 0-1.08 0L16.7 2.477a.75.75 0 0 0-.158.75l.953 2.549-9.25 9.295-2.477-2.474a.75.75 0 0 0-1.057 0l-2.626 2.624c-2.049 2.01-3.129 5.248-.66 7.721a4.562 4.562 0 0 0 3.24 1.432 6.665 6.665 0 0 0 4.502-2.091l2.626-2.624a.75.75 0 0 0 0-1.065L9.295 16.13l9.266-9.25 2.55.96a.75.75 0 0 0 .773-.157l1.876-1.755a.75.75 0 0 0 .24-.54.75.75 0 0 0-.218-.502ZM8.08 21.219c-1.56 1.56-3.894 2.406-5.604.66-1.71-1.747-.9-4.04.66-5.592l2.108-2.1 1.928 1.942-2.468 2.466a.75.75 0 1 0 1.058 1.065l2.476-2.474 1.943 1.942-2.1 2.091ZM21.201 6.272l-2.25-.848-.84-2.248.907-.967 3.151 3.14-.968.923Z" fill="currentColor"/></svg>
